X: 11092
T: Ducks On The Pond
R: barndance
M: 4/4
K: Adorian
|:[A,4E4] [A4e4]|edef g4|B2Bc BAGA|BABc BAG2|
[A,4E4] [A4e4]|edef gaba|g2e2 d2B2|1 A3B A4:|2 A3B A2e2||
|:aebe a2g2|edef g2g2-|gfga bagf|edeg age2|
aebe a2g2|edef g2ba|g2e2 d2B2|1 A3B A2e2:|2 A3B A4||

